assets/twitter.svg

<svg fill="none" height="30" viewBox="0 0 30 30" width="30" xmlns="http://www.w3.org/2000/svg" xmlns:xlink="http://www.w3.org/1999/xlink"><clipPath id="a"><path d="m0 0h30v30h-30z"/></clipPath><g clip-path="url(#a)"><path d="m29.8281 5.5299c-.1528-.15274-.4074-.20367-.6111-.15274l-1.0184.35647c.6111-.71287 1.0184-1.47668 1.273-2.18955.1019-.2546.0509-.45827-.1018-.61106-.1528-.15274-.4074-.20367-.6111-.10187-1.4258.61107-2.6478 1.12027-3.6662 1.42574 0 .05094-.051 0-.1019 0-.8147-.45827-2.8006-1.47667-4.2263-1.47667-3.6154.05093-6.5178 3.10614-6.5178 6.82329v.20367c-5.29569-1.0184-8.1981-2.54601-11.35517-5.85582l-.50909-.5092-.30553.61107c-1.731273 3.30981-.5092 6.31407 1.47667 8.35087-.91654-.1527-1.5276-.4582-2.08773-.9165-.20367-.1528-.45827-.2037-.712875-.051-.203669.1019-.305533.4074-.254601.662.712866 2.3932 2.495076 4.3282 4.430016 5.4993-.91654 0-1.68034-.1018-2.44414-.611-.20367-.1019-.5092-.1019-.71287.0509s-.30553.4073-.20367.6619c.91654 2.597 2.69874 3.9718 5.55028 4.3283-1.47667.8656-3.41161 1.5785-6.415889 1.6294-.305532 0-.560133.2037-.6619382.4583-.1018638.3055 0 .5601.2036692.7638 1.833138 1.4767 5.906688 2.3423 10.947768 2.3423 8.9619 0 16.2944-7.9944 16.2944-17.82196v-.15273c1.1203-.56014 2.0368-1.62947 2.4951-3.10615.0509-.20372-.0001-.45832-.1528-.61106zm-3.0552 2.90241-.3056.10187v.86566c0 9.26746-6.8742 16.80356-15.276 16.80356-4.6337 0-7.73978-.7638-9.42012-1.5785 3.51348-.2546 5.55028-1.3749 7.12882-2.5969l1.273-.9166h-1.5276c-2.90241 0-4.68462-.8147-5.70302-2.7497.91654.3056 1.88401.3056 2.95334.2546.40734-.0509.81474-.0509 1.22207-.0509l.15274-1.0184c-1.93494-.5601-4.22635-2.2914-5.34661-4.6337 1.0184.4583 2.13861.5602 3.15701.5602h1.57854l-1.27295-.9166c-1.06933-.7638-4.22635-3.46259-2.69874-7.33253 3.25887 3.20794 6.36502 4.68462 11.96622 5.70303l.611.1019v-1.42579c0-3.15701 2.4442-5.75395 5.4994-5.80489 1.1711-.05093 3.1061 1.01841 3.6662 1.32394.3055.15274.6111.20367.9165.10186.7638-.2546 1.6804-.61106 2.6988-1.0184-.4583.7638-1.0694 1.47667-1.884 2.13867-.2037.15274-.2546.45827-.1528.71287.1019.2546.4074.35647.662.2546l1.9858-.66194c-.3564.66188-.9166 1.42569-1.884 1.78209z" fill="#fff"/></g></svg>

<svg width="30" height="30" viewBox="0 0 30 30" fill="none" xmlns="http://www.w3.org/2000/svg">
<g clip-path="url(#clip0)">
<path d="M29.8281 5.5299C29.6753 5.37716 29.4207 5.32623 29.217 5.37716L28.1986 5.73363C28.8097 5.02076 29.217 4.25695 29.4716 3.54408C29.5735 3.28948 29.5225 3.08581 29.3698 2.93302C29.217 2.78028 28.9624 2.72935 28.7587 2.83115C27.3329 3.44222 26.1109 3.95142 25.0925 4.25689C25.0925 4.30783 25.0415 4.25689 24.9906 4.25689C24.1759 3.79862 22.19 2.78022 20.7643 2.78022C17.1489 2.83115 14.2465 5.88636 14.2465 9.60351V9.80718C8.95081 8.78878 6.0484 7.26117 2.89133 3.95136L2.38224 3.44216L2.07671 4.05323C0.345437 7.36304 1.56751 10.3673 3.55338 12.4041C2.63684 12.2514 2.02578 11.9459 1.46565 11.4876C1.26198 11.3348 1.00738 11.2839 0.752775 11.4366C0.549106 11.5385 0.447242 11.844 0.498174 12.0986C1.21104 14.4918 2.99325 16.4268 4.92819 17.5979C4.01165 17.5979 3.24785 17.4961 2.48405 16.9869C2.28038 16.885 1.97485 16.885 1.77118 17.0378C1.56751 17.1906 1.46565 17.4451 1.56751 17.6997C2.48405 20.2967 4.26625 21.6715 7.11779 22.028C5.64112 22.8936 3.70618 23.6065 0.701901 23.6574C0.396369 23.6574 0.141768 23.8611 0.0399628 24.1157C-0.061901 24.4212 0.0399628 24.6758 0.243632 24.8795C2.07677 26.3562 6.15032 27.2218 11.1914 27.2218C20.1533 27.2218 27.4858 19.2274 27.4858 9.39984V9.24711C28.6061 8.68697 29.5226 7.61764 29.9809 6.14096C30.0318 5.93724 29.9808 5.68264 29.8281 5.5299ZM26.7729 8.43231L26.4673 8.53418V9.39984C26.4673 18.6673 19.5931 26.2034 11.1913 26.2034C6.5576 26.2034 3.45152 25.4396 1.77118 24.6249C5.28466 24.3703 7.32146 23.25 8.9 22.028L10.173 21.1114H8.6454C5.74299 21.1114 3.96078 20.2967 2.94238 18.3617C3.85892 18.6673 4.82639 18.6673 5.89572 18.6163C6.30306 18.5654 6.71046 18.5654 7.11779 18.5654L7.27053 17.547C5.33559 16.9869 3.04418 15.2556 1.92392 12.9133C2.94232 13.3716 4.06253 13.4735 5.08093 13.4735H6.65947L5.38652 12.5569C4.31719 11.7931 1.16017 9.09431 2.68778 5.22437C5.94665 8.43231 9.0528 9.90899 14.654 10.9274L15.265 11.0293V9.60351C15.265 6.4465 17.7092 3.84956 20.7644 3.79862C21.9355 3.74769 23.8705 4.81703 24.4306 5.12256C24.7361 5.2753 25.0417 5.32623 25.3471 5.22442C26.1109 4.96982 27.0275 4.61336 28.0459 4.20602C27.5876 4.96982 26.9765 5.68269 26.1619 6.34469C25.9582 6.49743 25.9073 6.80296 26.0091 7.05756C26.111 7.31216 26.4165 7.41403 26.6711 7.31216L28.6569 6.65022C28.3005 7.3121 27.7403 8.07591 26.7729 8.43231Z" fill="white"/>
</g>
<defs>
<clipPath id="clip0">
<rect width="30" height="30" fill="white"/>
</clipPath>
</defs>
</svg>
